X:76
T:Ryan's, Sean
M:6/8
L:1/8
K:A Dorian
B|c3 B3|AGE DB,G,|A,G,A, EDB,|DEG AGE|!
cec BdB|AGE DB,G,|A,G,A, EDB,|DB,G, A,2:|!
B|cBA a3|bag edB|GBd g3|GBd cBA|!
cBc d^cd|ede gab|age dBG|EFG A2:|!
